img/svg/facebook.svg

<svg fill="none" height="34" viewBox="0 0 34 34" width="34" xmlns="http://www.w3.org/2000/svg"><path d="m18.796 10c-2.414 0-3.2116 1.1458-3.2116 3.1095v1.5547h-1.5844v2.3358h1.5844v7h2.9232v-7h1.9868l.267-2.3358h-2.2538v-1.3853c0-.6263.1318-.9468 1.0753-.9468h1.1821v-2.3321z" fill="#fff"/><circle cx="17" cy="17" r="16.5" stroke="#fff"/></svg>

<svg width="34" height="34" viewBox="0 0 34 34" fill="none" xmlns="http://www.w3.org/2000/svg">
<path d="M18.796 10C16.382 10 15.5844 11.1458 15.5844 13.1095V14.6642H14V17H15.5844V24H18.5076V17H20.4944L20.7614 14.6642H18.5076V13.2789C18.5076 12.6526 18.6394 12.3321 19.5829 12.3321H20.765V10H18.796Z" fill="white"/>
<circle cx="17" cy="17" r="16.5" stroke="white"/>
</svg>
